!!!COM: des Prez, Josquin
!!!CDT: ~1450-1521/08/27
!!!OTL@@FRA: Entr&eacute;e suis en grant pens&eacute;e
!!!AGN: Chanson
!!!SCT: NJE 27.8
!!!SCA: New Josquin Edition 27.8
!!!voices: 3
**kern	**text	**kern	**text	**kern	**text
*staff3	*	*staff2	*	*staff1	*
*Ivox	*	*Ivox	*	*Ivox	*
*I"Contra	*	*I"Tenor	*	*I"Superius	*
*I'C	*	*I'T	*	*I'S	*
*clefGv2	*	*clefGv2	*	*clefG2	*
*k[b-]	*	*k[b-]	*	*k[]	*
*M2/1	*	*M2/1	*	*M2/1	*
*met(C|)	*	*met(C|)	*	*met(C|)	*
=1-	=1-	=1-	=1-	=1-	=1-
!	!	!	!	!LO:TX:Z=6:t=Textless in the sources; underlay conjectural	!
1r	.	0r	.	1d	En-
1d	En-	.	.	2d/	-tr&eacute;-
.	.	.	.	2d/	-e
=2	=2	=2	=2	=2	=2
2d\	-tr&eacute;-	0r	.	1.a	suis
2d\	-e	.	.	.	.
[1d	suis	.	.	.	.
.	.	.	.	4b\	en
.	.	.	.	4cc\	.
=3	=3	=3	=3	=3	=3
2d\]	.	1G	En-	1.dd	grant
2c\	en	.	.	.	.
2B-\	grant	2G/	-tr&eacute;-	.	.
2A	pen-	2G/	-e	2cc\	pen-
=4	=4	=4	=4	=4	=4
1G	-s&eacute;-	1.d	suis	2b-i\	-s&eacute;-
.	.	.	.	4a/	.
.	.	.	.	4g/	.
1F	.	.	.	1a	.
.	.	4e\	en	.	.
.	.	4f\	.	.	.
=5	=5	=5	=5	=5	=5
2.E-	.	1.g	grant	2.g/	.
4F	.	.	.	4a/	.
4G	.	.	.	4b-i\	.
4A	.	.	.	4cc\	.
2B-\	.	2f\	pen-	[2dd\	.
=6	=6	=6	=6	=6	=6
2c\	.	2e-i\	s&eacute;-	4dd\]	.
.	.	.	.	4cc\	.
2A	.	4d\	.	1cc	.
.	.	4c\	.	.	.
1G	.	1d	.	.	.
.	.	.	.	2b\	.
=7	=7	=7	=7	=7	=7
1C	-e,	0c	-e,	1cc	-e,
2r	.	.	.	1r	.
[2c\	Pour	.	.	.	.
=8	=8	=8	=8	=8	=8
2c\]	.	0r	.	1dd	Pour
4Bni\	fai-	.	.	.	.
4A	.	.	.	.	.
1Bni	-re	.	.	2dd\	fai-
.	.	.	.	2dd\	-re
=9	=9	=9	=9	=9	=9
1.c	ung	0r	.	1ee	ung
.	.	.	.	2ee\	nou-
4B-\	nou-	.	.	[2dd\	-vel
4A	.	.	.	.	.
=10	=10	=10	=10	=10	=10
1G	-vel	1g	Pour	4dd\]	.
.	.	.	.	4cc\	.
.	.	.	.	4b\	.
.	.	.	.	4a/	.
1G	a-	2g\	fai-	1b	.
.	.	2g\	-re	.	.
=11	=11	=11	=11	=11	=11
2.F	.	1.a	ung	2.a/	a-
4G	.	.	.	4b\	.
4A	.	.	.	4cc\	.
4B-\	.	.	.	4dd\	.
2c\	.	2g\	nou-	[2ee\	.
=12	=12	=12	=12	=12	=12
2d\	.	2f\	-vel	2ee\]	.
2B-\	.	4e\	.	1dd	.
.	.	4d\	.	.	.
1A	.	1e	a-	.	.
.	.	.	.	2cc#i\	.
=13	=13	=13	=13	=13	=13
0D	-my,	0d	-my,	1dd	-my,
.	.	.	.	1r	.
=14	=14	=14	=14	=14	=14
1r	.	0r	.	1d	Dont
1d	Dont	.	.	2d/	je
.	.	.	.	2d/	m'en
=15	=15	=15	=15	=15	=15
2d\	je	0r	.	1.a	treu-
2d\	m'en	.	.	.	.
[1d	treu-	.	.	.	.
.	.	.	.	4b\	-ve
.	.	.	.	4cc\	.
=16	=16	=16	=16	=16	=16
2d\]	.	1G	Dont	1.dd	cour-
2c\	-ve	.	.	.	.
2B-\	cour-	2G/	je	.	.
2A	-rous-	2G/	m'en	2cc\	-rous-
=17	=17	=17	=17	=17	=17
1G	-s&eacute;-	1.d	treu-	2b-i\	-s&eacute;-
.	.	.	.	4a/	.
.	.	.	.	4g/	.
1F	.	.	.	1a	.
.	.	4e\	ve	.	.
.	.	4f\	.	.	.
=18	=18	=18	=18	=18	=18
2.E-	.	1.g	cour-	2.g/	.
4F	.	.	.	4a/	.
4G	.	.	.	4b-i\	.
4A	.	.	.	4cc\	.
2B-\	.	2f\	-rous-	[2dd\	.
=19	=19	=19	=19	=19	=19
2c\	.	2e\	-s&eacute;-	4dd\]	.
.	.	.	.	4cc\	.
2A	.	4d\	.	1cc	.
.	.	4c\	.	.	.
1G	.	1d	.	.	.
.	.	.	.	2b\	.
=20	=20	=20	=20	=20	=20
1C	-e,	0c	-e,	1cc	-e,
2r	.	.	.	1r	.
[2c\	Le	.	.	.	.
=21	=21	=21	=21	=21	=21
2c\]	.	0r	.	1dd	Le
4Bni\	cueur	.	.	.	.
4A	.	.	.	.	.
1Bni	dou-	.	.	2dd\	cueur
.	.	.	.	2dd\	dou-
=22	=22	=22	=22	=22	=22
1.c	-lent,	0r	.	1ee	-lent,
.	.	.	.	2ee\	tris-
4B-\	tris-	.	.	[2dd\	te et
4A	.	.	.	.	.
=23	=23	=23	=23	=23	=23
1G	-te et	1g	Le	4dd\]	.
.	.	.	.	4cc\	.
.	.	.	.	4b\	.
.	.	.	.	4a/	.
1G	mar-	2g\	cueur	1b	.
.	.	2g\	dou-	.	.
=24	=24	=24	=24	=24	=24
2.F	.	1.a	-lent,	2.a/	mar-
4G	.	.	.	4b\	.
4A	.	.	.	4cc\	.
4B-\	.	.	.	4dd\	.
2c\	.	2g\	tris-	[2ee\	.
=25	=25	=25	=25	=25	=25
2d\	.	2f\	te et	2ee\]	.
2B-\	.	4e\	.	1dd	.
.	.	4d\	.	.	.
1A	.	1e	mar-	.	.
.	.	.	.	2cc#i\	.
=26	=26	=26	=26	=26	=26
0D	-ry,	0d	-ry.	1.dd	-ry.
.	.	.	.	2cc\	Mais
=27	=27	=27	=27	=27	=27
1G	Mais	1r	.	2b-i\	je
.	.	.	.	4a/	.
.	.	.	.	4g/	.
1F	.	2r	.	1a	ne
.	.	2c\	Mais	.	.
=28	=28	=28	=28	=28	=28
1G	je	2B-\	je	1g	scay,
.	.	4A/	.	.	.
.	.	4G/	.	.	.
1F	.	1A	ne	2r	.
.	.	.	.	2cc\	mais
=29	=29	=29	=29	=29	=29
1G	ne	1G	scay,	2b-i\	je
.	.	.	.	4a/	.
.	.	.	.	4g/	.
1F	.	2r	.	4a/	.
.	.	.	.	4g/	.
.	.	2c\	mais	4f/	.
.	.	.	.	4e/	.
=30	=30	=30	=30	=30	=30
2G	scay	2B-\	je	2d/	.
2E	.	4A/	.	1g	.
.	.	4G/	.	.	.
1D	.	1A	ne	.	.
.	.	.	.	2f#i/	ne
=31	=31	=31	=31	=31	=31
1r	.	0G	scay	1g	scay,
[1d	Se	.	.	1r	.
=32	=32	=32	=32	=32	=32
1d]	.	0r	.	1.a	Se
1d	ce-	.	.	.	.
.	.	.	.	2b-i\	ce
=33	=33	=33	=33	=33	=33
2.c\	-la	1.A	Se	1.cc	la
4B-\	.	.	.	.	.
2A	.	.	.	.	.
2G	.	2B-\	ce-	2b-i\	me
=34	=34	=34	=34	=34	=34
2F	.	1.c	-la	2a/	se-
2.C	me	.	.	2.g/	-ra
4D	.	.	.	4f/	.
2E	se-	2B-\	me	4e/	.
.	.	.	.	4d/	.
=35	=35	=35	=35	=35	=35
2F	-ra	2A/	se-	2c/	.
2D	.	4G/	.	1f	.
.	.	4F/	.	.	.
1C	bon	1G	-ra	.	.
.	.	.	.	2e/	.
=36	=36	=36	=36	=36	=36
1r	.	0F	bon	1f	bon
[1A	En	.	.	1r	.
=37	=37	=37	=37	=37	=37
2A]	.	0r	.	1.a	En
2B-\	ce-	.	.	.	.
[1c	jo-	.	.	.	.
.	.	.	.	2b-i\	ce
=38	=38	=38	=38	=38	=38
2c\]	.	1.A	En	1.cc	jo-
2d\	.	.	.	.	.
1e	-li	.	.	.	.
.	.	2B-\	ce-	2dd\	-li
=39	=39	=39	=39	=39	=39
2.A	moys	2c\	jo-	2.ee\	moys
.	.	2d\	-li	.	.
4B-\	.	.	.	4dd\	.
2c\	.	2e\	moys	4cc\	.
.	.	.	.	4b\	.
[2d\	.	[2f\	.	[2a/	.
=40	=40	=40	=40	=40	=40
2d\]	.	4f\]	.	2a/]	.
.	.	4e\	.	.	.
2B-\	de	2d\	.	1dd	.
1A	may;	1e	de	.	.
.	.	.	.	2cc#i\	de
=41	=41	=41	=41	=41	=41
2r	.	0d	may;	2.dd\	may;
2.D	le	.	.	.	.
.	.	.	.	4cc\	.
.	.	.	.	1a	.
4E	.	.	.	.	.
4F	.	.	.	.	.
4G	.	.	.	.	.
=42	=42	=42	=42	=42	=42
4A	.	1f	le	2r	.
4F	.	.	.	.	.
2.A	sa-	.	.	2.cc\	le
.	.	1c	sa-	.	.
4G	.	.	.	4b\	.
4F	.	.	.	4a/	.
4E	.	.	.	4g/	.
=43	=43	=43	=43	=43	=43
2.D	-rai	2d\	-rai	2f/	sa-
.	.	4c\	.	2.a/	-rai
4E	.	4B-\	.	.	.
4F	.	4A/	.	.	.
4G	.	4B-\	.	4g/	.
2A	.	2c\	.	4f/	.
.	.	.	.	4e/	.
=44	=44	=44	=44	=44	=44
1B-	je,	2d\	.	2d/	.
.	.	2G/	je,	1g	je,
1c	ou	1A	ou	.	.
.	.	.	.	2f#i/	ou
=45	=45	=45	=45	=45	=45
0dl	non?	0Gl	non?	0gl	non?
==	==	==	==	==	==
*-	*-	*-	*-	*-	*-
!!!RDF**kern: l=long note in original notation
!!!RDF**kern: i=editorial accidental
!!!ENC: Jesse Rodin; 2011/05/30/
!!!END: 2011/05/30/
!!!EED: Jesse Rodin
!!!EEV: 2011/08/09/
!!attribution-level@Jos: 1 (secure, core group [checkmark])
!!!ONB: Translated from MusicXML and edited on 2011/08/09/ by Craig Sapp
!!muse2ps:  C^@{COM}\n@{SCT}^i2I150v90,90,120c130z18l2700t130
